src/16/actions/path-difference.svg

<svg xmlns="http://www.w3.org/2000/svg" viewBox="0 0 16 16">
  <defs id="defs3051">
    <style type="text/css" id="current-color-scheme">
      .ColorScheme-Text {
        color:#5d656b;
      }
      </style>
  </defs>
 <path style="fill:currentColor;fill-opacity:1;stroke:none" 
     d="M 9,2.03125 A 4.5,4.5 0 0 0 7.699219,2.378906 L 8.203,3.252 A 3.5,3.5 0 0 1 9,3.039063 Z m 1,0.00175 0,1.008 a 3.5,3.5 0 0 1 0.796875,0.210953 L 11.299,2.383 A 4.5,4.5 0 0 0 10,2.033203 M 6.833984,2.880859 A 4.5,4.5 0 0 0 5.880859,3.833984 L 6.754,4.336 A 3.5,3.5 0 0 1 7.333984,3.75 Z M 12.166,2.881 11.664,3.754 A 3.5,3.5 0 0 1 12.25,4.333984 L 13.12,3.834 A 4.5,4.5 0 0 0 12.166016,2.880859 M 13.621,4.699 12.748,5.203 A 3.5,3.5 0 0 1 12.960938,6 L 13.969,6 A 4.5,4.5 0 0 0 13.621094,4.699219 M 5.382813,4.701172 A 4.5,4.5 0 0 0 5.0332,6 L 2,6 l 0,8 8,0 0,-3.031 a 4.5,4.5 0 0 0 1.300781,-0.347906 L 10.797,9.748 A 3.5,3.5 0 0 1 9.953125,9.964844 3.5,3.5 0 0 1 9.695313,9.992188 3.5,3.5 0 0 1 9.5,10 3.5,3.5 0 0 1 9,9.958984 3.5,3.5 0 0 1 6.03906,7 3.5,3.5 0 0 1 6,6.5 3.5,3.5 0 0 1 6.04102,6 3.5,3.5 0 0 1 6.251953,5.203125 Z M 3,7 5.03,7 A 4.5,4.5 0 0 0 9,10.966797 L 9,13 3,13 Z m 9.958984,0 A 3.5,3.5 0 0 1 12.748047,7.796875 L 13.617,8.299 A 4.5,4.5 0 0 0 13.966797,7 Z m -0.71289,1.664063 A 3.5,3.5 0 0 1 11.666016,9.25 L 12.166,10.119 a 4.5,4.5 0 0 0 0.95314,-0.952984 z"
     class="ColorScheme-Text"
     />
 <path style="fill:currentColor;fill-opacity:0.5;stroke:none" 
     d="m 3,7 0,6 6,0 0,-3.041 A 3.5,3.5 0 0 1 6.039062,7.000016 Z"
     class="ColorScheme-Text"
     />
</svg>

<svg xmlns="http://www.w3.org/2000/svg" viewBox="0 0 16 16"><defs id="defs3051"><style type="text/css" id="current-color-scheme">.ColorScheme-Text{color:#5d656b}</style></defs><path d="M9 2.031a4.5 4.5 0 0 0-1.3.348l.503.873A3.5 3.5 0 0 1 9 3.039zm1 .002v1.008a3.5 3.5 0 0 1 .797.211l.502-.869A4.5 4.5 0 0 0 10 2.033m-3.166.848a4.5 4.5 0 0 0-.953.953l.873.502a3.5 3.5 0 0 1 .58-.586zm5.332 0l-.502.873a3.5 3.5 0 0 1 .586.58l.87-.5a4.5 4.5 0 0 0-.954-.953m1.455 1.818l-.873.504a3.5 3.5 0 0 1 .213.797h1.008a4.5 4.5 0 0 0-.348-1.3M5.383 4.7A4.5 4.5 0 0 0 5.033 6H2v8h8v-3.031a4.5 4.5 0 0 0 1.3-.348l-.503-.873a3.5 3.5 0 0 1-.844.217 3.5 3.5 0 0 1-.258.027A3.5 3.5 0 0 1 9.5 10a3.5 3.5 0 0 1-.5-.041A3.5 3.5 0 0 1 6.04 7 3.5 3.5 0 0 1 6 6.5a3.5 3.5 0 0 1 .041-.5 3.5 3.5 0 0 1 .211-.797zM3 7h2.03A4.5 4.5 0 0 0 9 10.967V13H3zm9.959 0a3.5 3.5 0 0 1-.211.797l.869.502A4.5 4.5 0 0 0 13.967 7zm-.713 1.664a3.5 3.5 0 0 1-.58.586l.5.869a4.5 4.5 0 0 0 .953-.953z" class="ColorScheme-Text" fill="currentColor"/><path d="M3 7v6h6V9.959A3.5 3.5 0 0 1 6.04 7z" class="ColorScheme-Text" fill="currentColor" fill-opacity=".5"/></svg>
